X: 0
M: 2/4
L: 1/16
K: G
=fd zg fd zg | =fefg fd z^c | dgg^f ggg2 | ggag gdz2 |\
ggz2 dd zA | B2G2 FDz2 | G2A2 B2c2 | decA AGz2 |

